icons/svg/tumblr.svg

﻿<?xml version="1.0" encoding="utf-8"?>
<!DOCTYPE svg PUBLIC "-//W3C//DTD SVG 1.1//EN" "http://www.w3.org/Graphics/SVG/1.1/DTD/svg11.dtd">
<svg xmlns="http://www.w3.org/2000/svg" xmlns:xlink="http://www.w3.org/1999/xlink" version="1.1" baseProfile="full" width="24" height="24" viewBox="0 0 24.00 24.00" enable-background="new 0 0 24.00 24.00" xml:space="preserve">
	<path fill="#000000" fill-opacity="1" stroke-width="0.2" stroke-linejoin="round" d="M 15.9994,10.9981L 12.9994,10.9981L 12.9994,14.8981C 12.9994,15.6311 13.1434,15.9981 14.0994,15.9981L 15.9994,15.9981L 15.9994,18.9981C 15.9994,18.9981 14.9711,19.0987 13.8994,19.0987C 11.2534,19.0987 9.9994,17.4751 9.9994,15.6981L 9.9994,10.9981L 7.9994,10.9981L 7.9994,8.19807C 10.4074,7.99807 10.6184,6.15607 10.7994,4.99807L 12.9994,4.99807L 12.9994,7.99807L 15.9994,7.99807M 19.9994,1.99807L 3.9994,1.99807C 2.8944,1.99807 2.0094,2.89307 2.0094,3.99807L 1.9994,19.9981C 1.9994,21.1016 2.8944,21.9981 3.9994,21.9981L 19.9994,21.9981C 21.1034,21.9981 21.9994,21.1016 21.9994,19.9981L 21.9994,3.99807C 21.9994,2.89307 21.1034,1.99807 19.9994,1.99807 Z "/>
</svg>

<svg xmlns="http://www.w3.org/2000/svg" version="1.1" baseProfile="full" width="24" height="24" viewBox="0 0 24.00 24.00" xml:space="preserve"><path fill="#000" fill-opacity="1" stroke-width=".2" stroke-linejoin="round" d="M16 10.998h-3v3.9c0 .733.143 1.1 1.1 1.1H16v3s-1.03.1-2.1.1c-2.647 0-3.9-1.623-3.9-3.4v-4.7H8v-2.8c2.407-.2 2.618-2.042 2.8-3.2H13v3h3m4-6H4c-1.106 0-1.99.895-1.99 2l-.01 16c0 1.104.894 2 2 2h16c1.103 0 2-.896 2-2v-16c0-1.105-.897-2-2-2z"/></svg>
